svgs/regular/face-pleading.svg

<svg xmlns="http://www.w3.org/2000/svg" viewBox="0 0 512 512"><!--! Font Awesome Pro 6.3.0 by @fontawesome - https://fontawesome.com License - https://fontawesome.com/license (Commercial License) Copyright 2023 Fonticons, Inc. --><path d="M464 256A208 208 0 1 0 48 256a208 208 0 1 0 416 0zM0 256a256 256 0 1 1 512 0A256 256 0 1 1 0 256zM266.5 412.4c-2-2.1-5.3-4.4-10.5-4.4s-8.5 2.3-10.5 4.4c-9 9.7-24.2 10.2-33.9 1.2s-10.2-24.2-1.2-33.9c8.9-9.5 24.2-19.6 45.5-19.6s36.7 10.1 45.5 19.6c9 9.7 8.5 24.9-1.2 33.9s-24.9 8.5-33.9-1.2zM160 288a48 48 0 1 0 0-96 48 48 0 1 0 0 96zm0 32c-44.2 0-80-35.8-80-80c0-18 6-34.6 16-48c-8 0-14.9-5.9-15.9-14c-1.1-8.8 5.1-16.8 13.9-17.9l11.5-1.4c25.5-3.2 46.6-21.3 53.6-45.9l1.5-5.2c2.4-8.5 11.3-13.4 19.8-11s13.4 11.3 11 19.8l-1.5 5.2c-4.2 14.8-11.8 28-21.9 38.8c40.4 4 72 38.1 72 79.6c0 44.2-35.8 80-80 80zm240-80a48 48 0 1 0 -96 0 48 48 0 1 0 96 0zm32 0c0 44.2-35.8 80-80 80s-80-35.8-80-80c0-41.5 31.5-75.6 72-79.6c-10-10.8-17.6-24.1-21.9-38.8l-1.5-5.2c-2.4-8.5 2.5-17.4 11-19.8s17.4 2.5 19.8 11l1.5 5.2c7 24.7 28.1 42.7 53.6 45.9l11.5 1.4c8.8 1.1 15 9.1 13.9 17.9c-1 8.1-7.9 14-15.9 14c10 13.4 16 30 16 48zm-304 0c17.7 0 32-14.3 32-32c17.7 0 32 14.3 32 32s-14.3 32-32 32s-32-14.3-32-32zm224-32c17.7 0 32 14.3 32 32s-14.3 32-32 32s-32-14.3-32-32c17.7 0 32-14.3 32-32z"/></svg>

<svg xmlns="http://www.w3.org/2000/svg" viewBox="0 0 512 512"><!--! Font Awesome Pro 6.2.0 by @fontawesome - https://fontawesome.com License - https://fontawesome.com/license (Commercial License) Copyright 2022 Fonticons, Inc. --><path d="M256 408C250.8 408 247.5 410.3 245.5 412.4C236.5 422.1 221.3 422.6 211.6 413.5C201.9 404.5 201.4 389.3 210.5 379.6C219.3 370.1 234.6 360 256 360C277.4 360 292.7 370.1 301.5 379.6C310.6 389.3 310.1 404.5 300.4 413.5C290.7 422.6 275.5 422.1 266.5 412.4C264.5 410.3 261.2 408 256 408zM128 240C145.7 240 160 225.7 160 208C177.7 208 192 222.3 192 240C192 257.7 177.7 272 160 272C142.3 272 128 257.7 128 240zM80 240C80 221.1 85.95 205.4 95.99 192C88.04 192 81.14 186.1 80.12 177.1C79.03 169.2 85.25 161.2 94.02 160.1L105.5 158.7C130.1 155.5 152.1 137.4 159.1 112.8L160.6 107.6C163 99.11 171.9 94.19 180.4 96.62C188.9 99.04 193.8 107.9 191.4 116.4L189.9 121.5C185.7 136.3 178.1 149.6 168 160.4C208.5 164.4 240 198.5 240 240C240 284.2 204.2 320 160 320C115.8 320 80 284.2 80 240zM160 288C186.5 288 208 266.5 208 240C208 213.5 186.5 192 160 192C133.5 192 112 213.5 112 240C112 266.5 133.5 288 160 288zM384 240C384 257.7 369.7 272 352 272C334.3 272 320 257.7 320 240C337.7 240 352 225.7 352 208C369.7 208 384 222.3 384 240zM432 240C432 284.2 396.2 320 352 320C307.8 320 272 284.2 272 240C272 198.5 303.5 164.4 343.1 160.4C333.9 149.6 326.3 136.3 322.1 121.5L320.6 116.4C318.2 107.9 323.1 99.04 331.6 96.62C340.1 94.19 348.1 99.11 351.4 107.6L352.9 112.8C359.9 137.4 381 155.5 406.5 158.7L417.1 160.1C426.8 161.2 432.1 169.2 431.9 177.1C430.9 186.1 423.1 192 416 192C426 205.4 432 221.1 432 240V240zM352 192C325.5 192 304 213.5 304 240C304 266.5 325.5 288 352 288C378.5 288 400 266.5 400 240C400 213.5 378.5 192 352 192zM512 256C512 397.4 397.4 512 256 512C114.6 512 0 397.4 0 256C0 114.6 114.6 0 256 0C397.4 0 512 114.6 512 256zM256 48C141.1 48 48 141.1 48 256C48 370.9 141.1 464 256 464C370.9 464 464 370.9 464 256C464 141.1 370.9 48 256 48z"/></svg>
